apps/64/clementine.svg

<?xml version="1.0" encoding="UTF-8" standalone="no"?>
<!-- Created with Inkscape (http://www.inkscape.org/) -->

<svg
   xmlns:dc="http://purl.org/dc/elements/1.1/"
   xmlns:cc="http://creativecommons.org/ns#"
   xmlns:rdf="http://www.w3.org/1999/02/22-rdf-syntax-ns#"
   xmlns:svg="http://www.w3.org/2000/svg"
   xmlns="http://www.w3.org/2000/svg"
   xmlns:xlink="http://www.w3.org/1999/xlink"
   xmlns:sodipodi="http://sodipodi.sourceforge.net/DTD/sodipodi-0.dtd"
   xmlns:inkscape="http://www.inkscape.org/namespaces/inkscape"
   width="64"
   height="64"
   id="svg13094"
   version="1.1"
   inkscape:version="0.91+devel r"
   sodipodi:docname="clementine.svg">
  <sodipodi:namedview
     id="base"
     pagecolor="#ffffff"
     bordercolor="#666666"
     borderopacity="1.0"
     inkscape:pageopacity="0"
     inkscape:pageshadow="2"
     inkscape:zoom="8.0000004"
     inkscape:cx="16.001557"
     inkscape:cy="32.311096"
     inkscape:document-units="px"
     inkscape:current-layer="g3910"
     showgrid="false"
     inkscape:snap-bbox="true"
     inkscape:bbox-paths="true"
     inkscape:bbox-nodes="true"
     inkscape:snap-bbox-edge-midpoints="true"
     inkscape:snap-bbox-midpoints="true"
     inkscape:object-paths="true"
     inkscape:snap-intersection-paths="true"
     inkscape:object-nodes="true"
     inkscape:snap-smooth-nodes="true"
     inkscape:snap-midpoints="true"
     inkscape:snap-object-midpoints="true"
     inkscape:snap-center="true"
     showguides="true"
     inkscape:guide-bbox="true"
     inkscape:window-width="1920"
     inkscape:window-height="1023"
     inkscape:window-x="-10"
     inkscape:window-y="35"
     inkscape:window-maximized="1"
     inkscape:snap-global="false"
     fit-margin-top="0"
     fit-margin-left="0"
     fit-margin-right="0"
     fit-margin-bottom="0"
     showborder="true"
     inkscape:showpageshadow="false"
     inkscape:snap-page="true">
    <inkscape:grid
       originy="18px"
       originx="1.6362304e-08px"
       snapvisiblegridlinesonly="true"
       enabled="true"
       visible="true"
       empspacing="5"
       id="grid3075"
       type="xygrid" />
  </sodipodi:namedview>
  <defs
     id="defs13096" />
  <metadata
     id="metadata13099">
    <rdf:RDF>
      <cc:Work
         rdf:about="">
        <dc:format>image/svg+xml</dc:format>
        <dc:type
           rdf:resource="http://purl.org/dc/dcmitype/StillImage" />
        <dc:title></dc:title>
      </cc:Work>
    </rdf:RDF>
  </metadata>
  <path
     inkscape:connector-curvature="0"
     style="color:#000000;fill:#fa8219;fill-opacity:1;fill-rule:nonzero;stroke:none;stroke-width:2.28571415;marker:none;visibility:visible;display:inline;overflow:visible;enable-background:accumulate"
     d="m 0,4 0,30 0,28 2,2 30,0 30,0 2,-2 L 64,34 64,4 32,4 0,4 z"
     id="path3983" />
  <path
     id="path6502"
     d="M 2 0 L 0 1 L 0 4 L 32 4 L 64 4 L 64 1 L 62 0 L 32 0 L 2 0 z "
     style="color:#000000;fill:#fbcb3f;fill-opacity:1;fill-rule:nonzero;stroke:none;marker:none;visibility:visible;display:inline;overflow:visible;enable-background:accumulate" />
  <path
     style="color:#000000;fill:#fff0be;fill-opacity:0.79785329;fill-rule:nonzero;stroke:none;stroke-width:1;marker:none;visibility:visible;display:inline;overflow:visible;enable-background:accumulate"
     d="M 28.21875 4.03125 C 23.209996 3.9217147 18.560547 4.7631357 14.8125 6.75 C -0.12101238 14.666353 2.969727 37.357982 30.0625 53 C 43.465245 60.738079 55.410949 62.526443 64 60.3125 L 64 51.8125 C 61.626035 52.593813 58.482963 52.643189 54.125 52.0625 C 53.976335 52.0548 53.822839 52.02226 53.6875 51.96875 C 52.738079 51.593365 52.148079 50.255984 51.34375 49.4375 C 49.454175 48.414301 47.924222 33.621807 47.15625 27.25 L 47.625 26.8125 L 48.6875 27.09375 C 52.983027 30.261559 59.5686 34.742522 64 38.1875 L 64 36.21875 C 59.408309 33.283374 53.284012 29.070613 49.15625 26.28125 L 48.65625 25.5 L 49.0625 25 C 54.30542 24.68136 61.271109 23.634011 64 24.40625 L 64 19 C 60.930833 16.234308 57.527415 13.728889 53.9375 11.65625 C 45.945622 7.0421378 36.566674 4.2138088 28.21875 4.03125 z M 31.53125 6.65625 C 34.295537 6.5665576 37.199078 7.1912439 41.28125 8.53125 C 42.040482 8.7483282 42.343354 9.3882976 42.875 9.84375 C 44.026043 10.483307 44.584422 17.633832 45.0625 22.46875 L 44.59375 22.84375 L 43.53125 22.53125 C 37.092391 17.794565 25.583578 10.245312 26.375 9.125 C 26.332945 8.7036157 25.667544 7.8465612 26.46875 7.59375 C 28.242518 7.0245452 29.872678 6.7100654 31.53125 6.65625 z M 20.125 9.96875 C 20.758671 9.8383458 21.852578 10.327378 22.6875 10.46875 C 24.063036 10.345454 36.019205 18.624861 42.9375 23.3125 L 43.46875 24.09375 L 42.96875 24.59375 C 35.558192 24.989438 20.515695 26.992021 18.34375 24.84375 C 17.781192 24.540103 16.802039 24.227886 16.03125 23.78125 C 15.568792 23.513279 15.144308 23.173321 15 22.75 C 12.644356 15.971482 14.147105 13.010706 19.875 10.0625 C 19.945096 10.016757 20.034476 9.9873792 20.125 9.96875 z M 48.28125 11.28125 C 48.45551 11.295475 48.643034 11.342954 48.875 11.4375 C 54.727276 13.808634 57.771701 15.875177 62 20.25 C 62.572176 20.795844 62.122885 21.056945 62.125 21.46875 C 62.593901 22.349847 53.756613 23.24367 48.0625 23.90625 L 47.09375 23.5625 L 46.5 22.78125 C 46.40456 18.180597 45.307912 11.203229 47.125 11.5 C 47.438014 11.456687 47.75847 11.238574 48.28125 11.28125 z M 43.9375 25.75 L 45 26.09375 L 45.625 26.9375 C 45.66752 33.079712 47.310278 47.147782 44.25 47.5 C 43.496837 47.952438 42.740479 49.505627 41.03125 49.03125 C 36.815307 47.878653 33.321129 46.55207 30.34375 44.8125 C 25.384283 41.914872 22.089056 38.061059 19.03125 32.53125 C 18.362809 31.531079 19.894864 30.904548 20.40625 30.125 C 20.405483 28.602577 36.698492 26.693354 43.9375 25.75 z "
     id="path4012" />
  <path
     inkscape:connector-curvature="0"
     style="fill:#fba82d;fill-opacity:1"
     id="path3028"
     d="M 64,6 62,4 64,3 z" />
  <g
     transform="translate(-0.62500009,0.082283)"
     inkscape:export-ydpi="90"
     inkscape:export-xdpi="90"
     inkscape:export-filename="folder.png"
     id="g3043" />
  <g
     style="fill:#ffffff"
     inkscape:label="#g3701"
     transform="matrix(1.0385892,0,0,1.0385892,1214.7222,1878.8121)"
     id="scalable" />
  <path
     id="path4298"
     d="M 0,3 0,6 2,4 Z"
     style="fill:#fbd73f;fill-opacity:1;fill-rule:nonzero"
     inkscape:connector-curvature="0"
     sodipodi:nodetypes="cccc" />
  <g
     transform="matrix(0.58495233,0,0,0.58495233,-5.8582128,27.663114)"
     id="g3910">
    <path
       style="color:#000000;display:inline;overflow:visible;visibility:visible;fill:#a20000;fill-opacity:0.15921289;fill-rule:nonzero;stroke:none;stroke-width:0.75397611;marker:none;enable-background:accumulate"
       d="M 10.246094 45.15625 A 7.3418207 6.0492468 45 0 0 8.7011719 46.207031 A 7.3418207 6.0492468 45 0 0 9.6152344 55.675781 A 7.3418207 6.0492468 45 0 0 19.083984 56.589844 A 7.3418207 6.0492468 45 0 0 18.169922 47.121094 A 7.3418207 6.0492468 45 0 0 15.835938 45.457031 A 5.1702964 5.1702964 0 0 1 17.976562 49.640625 A 5.1702964 5.1702964 0 0 1 12.806641 54.810547 A 5.1702964 5.1702964 0 0 1 7.6367188 49.640625 A 5.1702964 5.1702964 0 0 1 10.246094 45.15625 z "
       transform="matrix(1.709541,0,0,1.709541,10.014855,-47.291228)"
       id="path3914" />
    <circle
       id="path3912"
       style="color:#000000;display:inline;overflow:visible;visibility:visible;fill:#fffb58;fill-opacity:0.24150271;fill-rule:nonzero;stroke:none;stroke-width:0.41976249;marker:none;enable-background:accumulate"
       cx="29.130188"
       cy="33.93911"
       r="3.710211" />
  </g>
  <use
     height="64"
     width="64"
     transform="matrix(1.5650049,0,0,1.5650049,31.041642,-28.630124)"
     id="use3062"
     xlink:href="#g3910"
     y="0"
     x="0" />
  <use
     height="64"
     width="64"
     transform="matrix(0.90802247,0,0,0.90802247,27.263954,-8.3632029)"
     id="use3064"
     xlink:href="#g3910"
     y="0"
     x="0" />
  <use
     height="64"
     width="64"
     transform="matrix(0.63208985,0,0,0.63208985,9.4421535,-11.44411)"
     id="use3066"
     xlink:href="#g3910"
     y="0"
     x="0" />
  <use
     height="64"
     width="64"
     transform="matrix(0.34301758,0,0,0.34301758,48.283045,3.296359)"
     id="use3068"
     xlink:href="#g3910"
     y="0"
     x="0" />
  <use
     height="64"
     width="64"
     transform="matrix(0.34301758,0,0,0.34301758,51.995355,8.1577179)"
     id="use3070"
     xlink:href="#g3910"
     y="0"
     x="0" />
  <use
     height="64"
     width="64"
     transform="matrix(0.48755372,0,0,0.48755372,43.888617,2.0691141)"
     id="use3072"
     xlink:href="#g3910"
     y="0"
     x="0" />
  <use
     height="64"
     width="64"
     transform="matrix(0.48755372,0,0,0.48755372,0.75510549,14.973812)"
     id="use3074"
     xlink:href="#g3910"
     y="0"
     x="0" />
  <use
     x="0"
     y="0"
     xlink:href="#g3910"
     id="use3060"
     transform="matrix(0.36929688,0,0,0.36929688,16.363326,39.33655)"
     width="64"
     height="64" />
</svg>

<?xml version="1.0" encoding="UTF-8"?>
<!-- Created with Inkscape (http://www.inkscape.org/) -->
<svg width="64" height="64" version="1.1" xmlns="http://www.w3.org/2000/svg" xmlns:cc="http://creativecommons.org/ns#" xmlns:dc="http://purl.org/dc/elements/1.1/" xmlns:rdf="http://www.w3.org/1999/02/22-rdf-syntax-ns#" xmlns:xlink="http://www.w3.org/1999/xlink">
	<defs>
		<radialGradient id="d" cx="32.874" cy="38.6" r="8.8388" gradientTransform="matrix(1.3 0 0 1.3 -9.5924 -10.223)" gradientUnits="userSpaceOnUse">
			<stop stop-color="#b62600" stop-opacity="0" offset="0"/>
			<stop stop-color="#b62900" stop-opacity="0" offset=".62424"/>
			<stop stop-color="#dd7830" offset="1"/>
		</radialGradient>
		<radialGradient id="c" cx="31.908" cy="37.572" r="8.8388" gradientUnits="userSpaceOnUse">
			<stop stop-color="#330000" stop-opacity="0" offset="0"/>
			<stop stop-color="#450000" stop-opacity="0" offset=".49"/>
			<stop stop-color="#6e0000" stop-opacity=".24758" offset=".71"/>
			<stop stop-color="#000000" stop-opacity="0" offset="1"/>
		</radialGradient>
		<radialGradient id="e" cx="30.791" cy="36.026" r="8.8388" gradientTransform="matrix(1.1205 -2.0163e-8 2.0163e-8 1.1205 -3.8299 -4.8277)" gradientUnits="userSpaceOnUse">
			<stop stop-color="#ffcdad" stop-opacity=".34902" offset="0"/>
			<stop stop-color="#ff631d" stop-opacity="0" offset=".46935"/>
			<stop stop-color="#ffdfab" stop-opacity=".92338" offset="1"/>
		</radialGradient>
		<radialGradient id="b" cx="43.454" cy="48.072" r="32" gradientTransform="matrix(1.4733 0 0 1.4273 -17.614 -18.2)" gradientUnits="userSpaceOnUse">
			<stop stop-color="#fc5b6d" offset="0"/>
			<stop stop-color="#ff8a24" offset="1"/>
		</radialGradient>
	</defs>
	<metadata>
		<rdf:RDF>
			<cc:Work rdf:about="">
				<dc:format>image/svg+xml</dc:format>
				<dc:type rdf:resource="http://purl.org/dc/dcmitype/StillImage"/>
				<dc:title/>
			</cc:Work>
		</rdf:RDF>
	</metadata>
	<path d="m0 2v60l2 2h60l2-2v-60h-32z" color="#000000" fill="url(#b)"/>
	<path d="m2 0-2 1v1h64v-1l-2-1h-30z" color="#000000" fill="#ffc4a6"/>
	<path d="m28.219 4.0312c-5.0088-0.10954-9.6582 0.73189-13.406 2.7188-14.934 7.9164-11.843 30.608 15.25 46.25 13.403 7.7381 25.348 9.5264 33.938 7.3125v-8.5c-2.374 0.78131-5.517 0.83069-9.875 0.25-0.14866-0.0077-0.30216-0.04024-0.4375-0.09375-0.94942-0.37538-1.5394-1.7128-2.3438-2.5312-1.8896-1.0232-3.4195-15.816-4.1875-22.188l0.46875-0.4375 1.0625 0.28125c4.2955 3.1678 10.881 7.6488 15.312 11.094v-1.9688c-4.5917-2.9354-10.716-7.1481-14.844-9.9375l-0.5-0.78125 0.40625-0.5c5.2429-0.31864 12.209-1.366 14.938-0.59375v-5.4062c-3.0692-2.7657-6.4726-5.2711-10.062-7.3438-7.9919-4.6141-17.371-7.4424-25.719-7.625zm3.3125 2.625c2.7643-0.089692 5.6678 0.53499 9.75 1.875 0.75923 0.21708 1.0621 0.85705 1.5938 1.3125 1.151 0.63956 1.7094 7.7901 2.1875 12.625l-0.46875 0.375-1.0625-0.3125c-6.4389-4.7367-17.948-12.286-17.156-13.406-0.042055-0.42138-0.70746-1.2784 0.09375-1.5312 1.7738-0.5692 3.4039-0.88368 5.0625-0.9375zm-11.406 3.3125c0.63367-0.1304 1.7276 0.35863 2.5625 0.5 1.3755-0.1233 13.332 8.1561 20.25 12.844l0.53125 0.78125-0.5 0.5c-7.4106 0.39569-22.453 2.3983-24.625 0.25-0.56256-0.30365-1.5417-0.61586-2.3125-1.0625-0.46246-0.26797-0.88694-0.60793-1.0312-1.0312-2.3556-6.7785-0.8529-9.7393 4.875-12.688 0.0701-0.04574 0.15948-0.075121 0.25-0.09375zm28.156 1.3125c0.17426 0.01422 0.36178 0.0617 0.59375 0.15625 5.8523 2.3711 8.8967 4.4377 13.125 8.8125 0.57218 0.54584 0.12288 0.80694 0.125 1.2188 0.4689 0.8811-8.3684 1.7749-14.062 2.4375l-0.96875-0.34375-0.59375-0.78125c-0.09544-4.6007-1.1921-11.578 0.625-11.281 0.31301-0.04331 0.63347-0.26143 1.1562-0.21875zm-4.3438 14.469 1.0625 0.34375 0.625 0.84375c0.04252 6.1422 1.6853 20.21-1.375 20.562-0.75316 0.45244-1.5095 2.0056-3.2188 1.5312-4.2159-1.1526-7.7101-2.4792-10.688-4.2188-4.9595-2.8976-8.2547-6.7514-11.312-12.281-0.66844-1.0002 0.86361-1.6267 1.375-2.4062-7.67e-4 -1.5224 16.292-3.4316 23.531-4.375z" color="#000000" fill="#fff9c7" fill-opacity=".84872"/>
	<path d="m64 4-2-2 2-1z" fill="#f19e72" fill-opacity=".99228"/>
	<path d="m0 1v3l2-2z" fill="#ffd7b4"/>
	<g id="a" transform="matrix(.58495 0 0 .58495 -5.8582 27.663)">
		<path transform="matrix(.82731 -.82731 1.0041 1.0041 -30.359 29.25)" d="m40.747 37.572a8.8388 8.8388 0 0 1-8.8388 8.8388 8.8388 8.8388 0 0 1-8.8388-8.8388 8.8388 8.8388 0 0 1 8.8388-8.8388 8.8388 8.8388 0 0 1 8.8388 8.8388z" color="#000000" fill="url(#c)"/>
		<path d="m40.747 37.572a8.8388 8.8388 0 0 1-8.8388 8.8388 8.8388 8.8388 0 0 1-8.8388-8.8388 8.8388 8.8388 0 0 1 8.8388-8.8388 8.8388 8.8388 0 0 1 8.8388 8.8388z" color="#000000" fill="url(#d)"/>
		<path d="m40.747 37.572a8.8388 8.8388 0 0 1-8.8388 8.8388 8.8388 8.8388 0 0 1-8.8388-8.8388 8.8388 8.8388 0 0 1 8.8388-8.8388 8.8388 8.8388 0 0 1 8.8388 8.8388z" color="#000000" fill="url(#e)"/>
	</g>
	<use transform="matrix(1.565 0 0 1.565 31.042 -28.63)" width="64" height="64" xlink:href="#a"/>
	<use transform="matrix(.90802 0 0 .90802 27.264 -8.3632)" width="64" height="64" xlink:href="#a"/>
	<use transform="matrix(.63209 0 0 .63209 9.4422 -11.444)" width="64" height="64" xlink:href="#a"/>
	<use transform="matrix(.34302 0 0 .34302 48.283 3.2964)" width="64" height="64" xlink:href="#a"/>
	<use transform="matrix(.34302 0 0 .34302 51.995 8.1577)" width="64" height="64" xlink:href="#a"/>
	<use transform="matrix(.48755 0 0 .48755 43.889 2.0691)" width="64" height="64" xlink:href="#a"/>
	<use transform="matrix(.48755 0 0 .48755 .75511 14.974)" width="64" height="64" xlink:href="#a"/>
	<use transform="matrix(.3693 0 0 .3693 16.363 39.337)" width="64" height="64" xlink:href="#a"/>
</svg>
